X:1
T:St. Francis, 8.10.10.4
T:St. Francis, 8.10.10.4
T:Henry Elliot Button, 1912
T:Public Domain Courtesy of the Cyber Hymnal™
C:Henry Elliot Button, 1912
Z:Public Domain
Z:Courtesy of the Cyber Hymnal™
%%score ( 1 2 ) ( 3 4 )
L:1/8
Q:1/4=110
M:3/4
K:G
V:1 treble 
V:2 treble 
V:3 bass 
V:4 bass 
V:1
 D2 | ([B,B]2 [CA]2) [DG]2 | [DF]4 [CE]2 | ([Cc]2 [DB]2) [EA]2 | (G4 F2) | [FA]2 [FB]2 [Fc]2 | %6
 [Gd]3 [DB] [DA][DG] | (F2 G2) [^CE]2 | D6 | [DA]2 [DG]2 [DF]2 | [DA]>[DG] [DG]2 [B,G]2 | %11
 ([Ec]2 [DB]2) [FA]2 | (c2 B4) | [EG]3 [EA] [DF]2 | [DG]4 |] %15
V:2
 D2 | x6 | x6 | x6 | D6 | x6 | x6 | D4 x2 | D6 | x6 | x6 | x6 | F6 | x6 | x4 |] %15
V:3
 D,2 | ([G,,D,]2 [A,,F,]2) [B,,G,]2 | [C,G,]4 [C,G,]2 | ([A,,A,]2 [B,,^G,]2) [C,A,]2 | [D,G,]6 | %5
 [CD]2 [CD]2 [CD]2 | [B,D]3 [B,D] [E,B,][E,B,] | (A,2 B,2) [A,,G,]2 | [D,F,]6 | %9
 [C,F,]2 [C,G,]2 [C,A,]2 | [B,,F,]>[B,,G,] [B,,G,]2 [E,G,]2 | G,4 [D,C]2 | (A,2 B,4) | %13
 [E,B,]2 [A,,C]2 [D,A,]2 | [G,,B,]4 |] %15
V:4
 D,2 | x6 | x6 | x6 | x6 | x6 | x6 | A,,4 x2 | x6 | x6 | x6 | (A,,2 D,2) x2 | ^D,6 | x6 | x4 |] %15

